lib/flags/l/MS.svg

<svg xmlns="http://www.w3.org/2000/svg" fill="none" viewBox="0 0 32 24"><mask id="MS_svg__a" width="32" height="24" x="0" y="0" mask-type="alpha" maskUnits="userSpaceOnUse"><path fill="#fff" d="M0 0H32V24H0z"/></mask><g mask="url(#MS_svg__a)"><path fill="#2E42A5" fill-rule="evenodd" d="M0 0V24H32V0H0Z" clip-rule="evenodd"/><mask id="MS_svg__b" width="32" height="24" x="0" y="0" mask-type="alpha" maskUnits="userSpaceOnUse"><path fill="#fff" fill-rule="evenodd" d="M0 0V24H32V0H0Z" clip-rule="evenodd"/></mask><g mask="url(#MS_svg__b)"><path fill="#6DC2FF" stroke="#F7FCFF" stroke-width=".5" d="M25.9286 21.714C24.633 21.714 23.7227 21.4192 23.0724 20.8991C22.4211 20.378 21.9987 19.6054 21.7298 18.5867C21.4603 17.5658 21.3505 16.3187 21.3095 14.8735C21.2807 13.8576 21.286 12.755 21.2917 11.5733C21.2938 11.153 21.2958 10.7227 21.2965 10.2827H30.6715C30.8388 13.191 30.9026 16.0355 30.3092 18.1685C30.0059 19.2588 29.5364 20.141 28.8409 20.7507C28.1498 21.3565 27.2119 21.714 25.9286 21.714Z"/><mask id="MS_svg__c" width="11" height="12" x="21" y="10" mask-type="alpha" maskUnits="userSpaceOnUse"><path fill="#fff" stroke="#fff" stroke-width=".5" d="M25.9286 21.714C24.633 21.714 23.7227 21.4192 23.0724 20.8991C22.4211 20.378 21.9987 19.6054 21.7298 18.5867C21.4603 17.5658 21.3505 16.3187 21.3095 14.8735C21.2807 13.8576 21.286 12.755 21.2917 11.5733C21.2938 11.153 21.2958 10.7227 21.2965 10.2827H30.6715C30.8388 13.191 30.9026 16.0355 30.3092 18.1685C30.0059 19.2588 29.5364 20.141 28.8409 20.7507C28.1498 21.3565 27.2119 21.714 25.9286 21.714Z"/></mask><g mask="url(#MS_svg__c)"><path fill="#2EBED7" d="M20.933 10H31.003V17.978H20.933z"/><path fill="#A95601" d="M20.8 17.914H31.4V22H20.8z"/><path stroke="#FFC6B5" d="M26.7458 13.4639C26.7458 13.4639 24.8787 13.8873 25.0592 13.4639C25.2398 13.0404 25.7226 11.5133 25.7226 11.5133"/><path fill="#FFC6B5" fill-rule="evenodd" d="M27.3073 13.7658C27.3073 13.7658 26.9667 13.5571 26.9667 13.177C26.9667 12.7968 26.136 12.6546 26.7216 12.0607C27.3073 11.4668 27.56 11.7283 27.56 12.0607C27.56 12.3931 28.0308 13.177 28.0308 13.177L27.3073 13.7658Z" clip-rule="evenodd"/><path fill="#272727" fill-rule="evenodd" d="M26.365 10.3243H25.4375V11.2324H23.5825V12.1406H25.4375V20.0541H26.365V12.1406H28.22V11.2324H26.365V10.3243Z" clip-rule="evenodd"/><path fill="#0C7C38" fill-rule="evenodd" d="M28.3621 20.3212C28.3621 20.3212 28.0247 18.7597 28.0247 17.6908C28.0247 16.6219 27.4592 15.8574 27.6208 15.2921C27.7824 14.7268 28.1714 14.1018 27.9769 13.7149C27.7824 13.328 28.1667 13.1396 27.6208 13.328C27.0749 13.5164 26.9281 13.1396 26.4011 13.328C25.874 13.5164 25.8073 14.4058 25.8073 14.6595C25.8073 14.9132 26.0416 16.6239 26.0416 17.1573C26.0416 17.6908 25.8485 20.971 26.4011 20.971C26.9536 20.971 27.556 20.1174 27.7665 20.1174C27.9769 20.1174 28.3621 20.3212 28.3621 20.3212Z" clip-rule="evenodd"/><path stroke="#FF9A06" d="M25.0299 16.1414C24.693 16.1414 25.0028 16.9238 24.1458 17.2668C23.2887 17.6099 23.1205 18.093 23.3905 18.093C23.6604 18.093 25.7952 20.4915 25.7952 20.4915L26.3187 19.6822V17.1267C26.3187 17.1267 25.3667 16.1414 25.0299 16.1414Z" clip-rule="evenodd"/><path stroke="#979797" d="M27.5432 20.1578C27.5432 20.1578 27.9432 21.0162 27.5432 21.0162"/><path stroke="#FFC6B5" d="M27.4145 13.7903C27.4145 13.7903 27.2387 14.7531 26.9042 14.9547C26.5696 15.1563 25.1951 15.5465 25.1951 15.8797C25.1951 16.213 25.0587 16.3321 25.0587 16.3321"/><path fill="#FF9A06" fill-rule="evenodd" d="M26.7479 11.8025C26.7479 11.8025 27.0843 12.2022 27.2726 12.8611C27.4609 13.5199 28.0064 13.7444 28.0064 13.436C28.0064 13.1276 28.4097 11.8025 28.0064 11.8025C27.6031 11.8025 26.7479 11.8025 26.7479 11.8025Z" clip-rule="evenodd"/></g><path fill="#2B409A" d="M0 0H18V14H0z"/><mask id="MS_svg__d" width="18" height="14" x="0" y="0" mask-type="alpha" maskUnits="userSpaceOnUse"><path fill="#fff" d="M0 0H18V14H0z"/></mask><g mask="url(#MS_svg__d)"><path fill="#F7FCFF" d="M-2.00427 12.9997L1.95668 14.7369L18.0899 1.88866L20.1792 -0.692871L15.9435 -1.27349L9.36317 4.2632L4.06667 7.99363L-2.00427 12.9997Z"/><path fill="#F50100" d="M-1.46204 14.217L0.555885 15.2251L19.4289 -0.932617H16.5955L-1.46204 14.217Z"/><path fill="#F7FCFF" d="M20.0043 12.9997L16.0433 14.7369L-0.0898743 1.88866L-2.17919 -0.692871L2.05648 -1.27349L8.63683 4.2632L13.9333 7.99363L20.0043 12.9997Z"/><path fill="#F50100" d="M19.8691 13.8733L17.8512 14.8815L9.81489 7.96351L7.43229 7.19059L-2.3802 -0.683947H0.453194L10.2602 7.00368L12.8651 7.9305L19.8691 13.8733Z"/><mask id="MS_svg__e" width="22" height="18" x="-2" y="-2" fill="#000" maskUnits="userSpaceOnUse"><path fill="#fff" d="M-2-2H20V16H-2z"/><path fill-rule="evenodd" d="M9.98451 0H7.98451V6H0V8H7.98451V14H9.98451V8H18V6H9.98451V0Z" clip-rule="evenodd"/></mask><path fill="#F50100" fill-rule="evenodd" d="M9.98451 0H7.98451V6H0V8H7.98451V14H9.98451V8H18V6H9.98451V0Z" clip-rule="evenodd"/><path fill="#F7FCFF" d="M7.98451 0V-1.5H6.48451V0H7.98451ZM9.98451 0H11.4845V-1.5H9.98451V0ZM7.98451 6V7.5H9.48451V6H7.98451ZM0 6V4.5H-1.5V6H0ZM0 8H-1.5V9.5H0V8ZM7.98451 8H9.48451V6.5H7.98451V8ZM7.98451 14H6.48451V15.5H7.98451V14ZM9.98451 14V15.5H11.4845V14H9.98451ZM9.98451 8V6.5H8.48451V8H9.98451ZM18 8V9.5H19.5V8H18ZM18 6H19.5V4.5H18V6ZM9.98451 6H8.48451V7.5H9.98451V6ZM7.98451 1.5H9.98451V-1.5H7.98451V1.5ZM9.48451 6V0H6.48451V6H9.48451ZM0 7.5H7.98451V4.5H0V7.5ZM1.5 8V6H-1.5V8H1.5ZM7.98451 6.5H0V9.5H7.98451V6.5ZM9.48451 14V8H6.48451V14H9.48451ZM9.98451 12.5H7.98451V15.5H9.98451V12.5ZM8.48451 8V14H11.4845V8H8.48451ZM18 6.5H9.98451V9.5H18V6.5ZM16.5 6V8H19.5V6H16.5ZM9.98451 7.5H18V4.5H9.98451V7.5ZM8.48451 0V6H11.4845V0H8.48451Z" mask="url(#MS_svg__e)"/></g></g></g></svg>

<svg xmlns="http://www.w3.org/2000/svg" fill="none" viewBox="0 0 32 24"><mask id="MS_svg__a" width="32" height="24" x="0" y="0" maskUnits="userSpaceOnUse"><path fill="#fff" d="M0 0h32v24H0z"/></mask><g mask="url(#MS_svg__a)"><path fill="#2E42A5" fill-rule="evenodd" d="M0 0v24h32V0H0z" clip-rule="evenodd"/><mask id="MS_svg__b" width="32" height="24" x="0" y="0" maskUnits="userSpaceOnUse"><path fill="#fff" fill-rule="evenodd" d="M0 0v24h32V0H0z" clip-rule="evenodd"/></mask><g mask="url(#MS_svg__b)"><path fill="#6DC2FF" stroke="#F7FCFF" stroke-width=".5" d="M25.929 21.714c-1.296 0-2.206-.295-2.857-.815-.65-.521-1.073-1.294-1.342-2.312-.27-1.021-.38-2.268-.42-3.713a102.444 102.444 0 01-.018-3.3l.005-1.291h9.375c.167 2.908.23 5.752-.363 7.885-.303 1.09-.773 1.973-1.468 2.583-.691.605-1.63.963-2.912.963z"/><mask id="MS_svg__c" width="11" height="12" x="21" y="10" maskUnits="userSpaceOnUse"><path fill="#fff" stroke="#fff" stroke-width=".5" d="M25.929 21.714c-1.296 0-2.206-.295-2.857-.815-.65-.521-1.073-1.294-1.342-2.312-.27-1.021-.38-2.268-.42-3.713a102.444 102.444 0 01-.018-3.3l.005-1.291h9.375c.167 2.908.23 5.752-.363 7.885-.303 1.09-.773 1.973-1.468 2.583-.691.605-1.63.963-2.912.963z"/></mask><g mask="url(#MS_svg__c)"><path fill="#2EBED7" d="M20.933 10h10.07v7.978h-10.07z"/><path fill="#A95601" d="M20.8 17.913h10.6v4.086H20.8z"/><path stroke="#FFC6B5" d="M26.746 13.464s-1.867.423-1.687 0c.18-.424.664-1.95.664-1.95"/><path fill="#FFC6B5" fill-rule="evenodd" d="M27.307 13.766s-.34-.209-.34-.59c0-.38-.831-.521-.245-1.115.585-.594.838-.333.838 0 0 .332.47 1.116.47 1.116l-.723.589z" clip-rule="evenodd"/><path fill="#272727" fill-rule="evenodd" d="M26.365 10.324h-.927v.908h-1.855v.909h1.855v7.913h.927v-7.913h1.855v-.909h-1.855v-.908z" clip-rule="evenodd"/><path fill="#0C7C38" fill-rule="evenodd" d="M28.362 20.321s-.337-1.561-.337-2.63c0-1.07-.566-1.834-.404-2.399.161-.565.55-1.19.356-1.577-.195-.387.19-.575-.356-.387-.546.188-.693-.188-1.22 0s-.594 1.078-.594 1.332c0 .253.235 1.964.235 2.497 0 .534-.194 3.814.36 3.814.552 0 1.154-.854 1.364-.854.21 0 .596.204.596.204z" clip-rule="evenodd"/><path stroke="#FF9A06" d="M25.03 16.141c-.337 0-.027.783-.884 1.126-.857.343-1.026.826-.756.826s2.405 2.398 2.405 2.398l.524-.809v-2.555s-.952-.986-1.29-.986z" clip-rule="evenodd"/><path stroke="#979797" d="M27.543 20.158s.4.858 0 .858"/><path stroke="#FFC6B5" d="M27.415 13.79s-.176.963-.51 1.165c-.335.201-1.71.591-1.71.925 0 .333-.136.452-.136.452"/><path fill="#FF9A06" fill-rule="evenodd" d="M26.748 11.803s.336.4.525 1.058c.188.659.733.883.733.575 0-.308.404-1.633 0-1.633h-1.258z" clip-rule="evenodd"/></g><path fill="#2B409A" d="M0 0h18v14H0z"/><mask id="MS_svg__d" width="18" height="14" x="0" y="0" maskUnits="userSpaceOnUse"><path fill="#fff" d="M0 0h18v14H0z"/></mask><g mask="url(#MS_svg__d)"><path fill="#F7FCFF" d="M-2.004 13l3.96 1.737L18.09 1.889l2.09-2.582-4.236-.58-6.58 5.536-5.297 3.73L-2.004 13z"/><path fill="#F50100" d="M-1.462 14.217l2.018 1.008L19.429-.933h-2.833l-18.058 15.15z"/><path fill="#F7FCFF" d="M20.004 13l-3.96 1.737L-.09 1.889-2.18-.693l4.236-.58 6.58 5.536 5.297 3.73L20.004 13z"/><path fill="#F50100" d="M19.87 13.873l-2.019 1.009-8.036-6.918-2.383-.773L-2.38-.684H.453l9.807 7.688 2.605.927 7.004 5.942z"/><mask id="MS_svg__e" width="22" height="18" x="-2" y="-2" fill="#000" maskUnits="userSpaceOnUse"><path fill="#fff" d="M-2-2h22v18H-2z"/><path fill-rule="evenodd" d="M9.985 0h-2v6H0v2h7.985v6h2V8H18V6H9.985V0z" clip-rule="evenodd"/></mask><path fill="#F50100" fill-rule="evenodd" d="M9.985 0h-2v6H0v2h7.985v6h2V8H18V6H9.985V0z" clip-rule="evenodd"/><path fill="#F7FCFF" d="M7.985 0v-1.5h-1.5V0h1.5zm2 0h1.5v-1.5h-1.5V0zm-2 6v1.5h1.5V6h-1.5zM0 6V4.5h-1.5V6H0zm0 2h-1.5v1.5H0V8zm7.985 0h1.5V6.5h-1.5V8zm0 6h-1.5v1.5h1.5V14zm2 0v1.5h1.5V14h-1.5zm0-6V6.5h-1.5V8h1.5zM18 8v1.5h1.5V8H18zm0-2h1.5V4.5H18V6zM9.985 6h-1.5v1.5h1.5V6zm-2-4.5h2v-3h-2v3zm1.5 4.5V0h-3v6h3zM0 7.5h7.985v-3H0v3zm1.5.5V6h-3v2h3zm6.485-1.5H0v3h7.985v-3zm1.5 7.5V8h-3v6h3zm.5-1.5h-2v3h2v-3zM8.485 8v6h3V8h-3zM18 6.5H9.985v3H18v-3zM16.5 6v2h3V6h-3zM9.985 7.5H18v-3H9.985v3zM8.485 0v6h3V0h-3z" mask="url(#MS_svg__e)"/></g></g></g></svg>
